docs/img/icons/hero/tag.svg

<svg width="53" height="53" viewBox="0 0 53 53" fill="none" xmlns="http://www.w3.org/2000/svg">
<path opacity="0.6" d="M4.29749 16.0015L0.92482 35.1289C0.678762 36.5243 0.70997 37.9546 1.01666 39.338C1.32336 40.7214 1.89953 42.0309 2.71228 43.1916C4.35371 45.5358 6.85915 47.1319 9.67741 47.6289L35.1805 52.1257C36.576 52.3718 38.0063 52.3406 39.3897 52.0339C40.7731 51.7272 42.0825 51.151 43.2433 50.3383C44.404 49.5255 45.3933 48.4921 46.1546 47.297C46.916 46.102 47.4345 44.7686 47.6805 43.3732L51.0532 24.2458L4.29749 16.0015ZM22.2019 35.1334C22.3663 35.3661 22.4829 35.629 22.5451 35.907C22.6074 36.185 22.6139 36.4726 22.5645 36.7532C22.515 37.0337 22.4105 37.3017 22.2569 37.5417C22.1034 37.7816 21.9038 37.9888 21.6698 38.1513C21.4371 38.3156 21.1741 38.4323 20.8961 38.4945C20.6181 38.5568 20.3305 38.5633 20.05 38.5139C19.7694 38.4644 19.5014 38.3598 19.2615 38.2063C19.0215 38.0527 18.8143 37.8532 18.6519 37.6191L15.1509 32.6191C14.9865 32.3864 14.8698 32.1235 14.8076 31.8455C14.7454 31.5675 14.7388 31.2799 14.7883 30.9994C14.8377 30.7188 14.9423 30.4508 15.0958 30.2108C15.2494 29.9709 15.449 29.7637 15.683 29.6013L20.683 26.1002C21.1537 25.7706 21.7362 25.6415 22.3021 25.7413C22.8681 25.8411 23.3712 26.1616 23.7009 26.6324C24.0305 27.1031 24.1596 27.6855 24.0598 28.2515C23.96 28.8175 23.6395 29.3206 23.1687 29.6502L19.9225 31.9047L22.2019 35.1334ZM35.1708 36.1492L30.1708 39.6502C29.9381 39.8146 29.6752 39.9313 29.3972 39.9935C29.1192 40.0557 28.8316 40.0623 28.551 40.0128C28.2705 39.9633 28.0025 39.8588 27.7625 39.7053C27.5226 39.5517 27.3154 39.3521 27.1529 39.1181C26.9886 38.8854 26.8719 38.6225 26.8097 38.3445C26.7475 38.0665 26.7409 37.7789 26.7904 37.4983C26.8398 37.2178 26.9444 36.9498 27.0979 36.7098C27.2515 36.4699 27.451 36.2627 27.6851 36.1002L30.9313 33.8458L28.6519 30.6171C28.3223 30.1463 28.1931 29.5639 28.2929 28.9979C28.3927 28.432 28.7133 27.9288 29.184 27.5992C29.6548 27.2696 30.2372 27.1404 30.8032 27.2402C31.3691 27.34 31.8723 27.6606 32.2019 28.1313L35.7029 33.1313C35.8673 33.364 35.984 33.627 36.0462 33.905C36.1084 34.183 36.115 34.4705 36.0655 34.7511C36.016 35.0317 35.9115 35.2997 35.758 35.5396C35.6044 35.7796 35.4048 35.9867 35.1708 36.1492ZM51.8027 19.9953L5.04697 11.751L5.42171 9.62575C5.91864 6.80748 7.51478 4.30205 9.85899 2.66062C12.2032 1.01919 15.1034 0.376217 17.9217 0.873154L43.4248 5.37004C44.8203 5.6161 46.1536 6.13461 47.3487 6.89596C48.5438 7.6573 49.5772 8.64659 50.39 9.80732C51.2027 10.9681 51.7789 12.2775 52.0856 13.6609C52.3923 15.0443 52.4235 16.4746 52.1774 17.87L51.8027 19.9953Z" fill="#00C35B"/>
</svg>

<svg width="53" height="53" fill="none" xmlns="http://www.w3.org/2000/svg"><path opacity=".6" d="M4.297 16.002L.925 35.129a10.79 10.79 0 008.752 12.5l25.504 4.497a10.79 10.79 0 0012.5-8.753l3.372-19.127-46.756-8.244zm17.905 19.131a2.157 2.157 0 01-.532 3.018 2.159 2.159 0 01-3.018-.532l-3.501-5a2.157 2.157 0 01.532-3.018l5-3.5a2.167 2.167 0 012.486 3.55l-3.247 2.254 2.28 3.228zM35.17 36.15l-5 3.501a2.157 2.157 0 01-3.018-.532 2.158 2.158 0 01.532-3.018l3.246-2.254-2.28-3.229a2.167 2.167 0 013.55-2.486l3.502 5a2.157 2.157 0 01-.532 3.018zm16.632-16.154L5.047 11.751l.375-2.125a10.79 10.79 0 0112.5-8.753L43.425 5.37a10.79 10.79 0 018.752 12.5l-.374 2.125z" fill="#00C35B"/></svg>
